component-icons/svg/collapsible.svg

<?xml version="1.0" encoding="utf-8"?>
<!-- Generator: Adobe Illustrator 24.2.3, SVG Export Plug-In . SVG Version: 6.00 Build 0)  -->
<svg version="1.1" id="Layer_1" xmlns="http://www.w3.org/2000/svg" xmlns:xlink="http://www.w3.org/1999/xlink" x="0px" y="0px"
	 width="24px" height="24px" viewBox="0 0 24 24" enable-background="new 0 0 24 24" xml:space="preserve">
<path d="M20,5H6v2h12L20,5z M20,9H6v2h12L20,9z M24,0H6v2h16L24,0z M14,17H6v2h6L14,17z M0,24h22l2-2H0V24z M4,0H0v2h4V0z M20,13H6
	v2h12L20,13z"/>
</svg>

<svg id="Layer_1" data-name="Layer 1" xmlns="http://www.w3.org/2000/svg" viewBox="0 0 24 24">
  <defs>
    <style>
      .cls-1 {
        fill: gray;
      }
    </style>
  </defs>
  <title>collapsible</title>
  <path class="cls-1" d="M20,5H6V7H18Zm0,4H6v2H18Zm4-9H6V2H22ZM14,17H6v2h6ZM0,24H22l2-2H0ZM4,0H0V2H4ZM20,13H6v2H18Z"/>
</svg>
